context/brand-context/default/img/icons/video.svg

<svg id="i-video" viewBox="0 0 18 18" xmlns="http://www.w3.org/2000/svg"><path d="m16.0049107 2c1.1018574 0 1.9950893.89706013 1.9950893 2.00585866v9.98828264c0 1.1078052-.8926228 2.0058587-1.9950893 2.0058587h-14.00982141c-1.10185739 0-1.99508929-.8970601-1.99508929-2.0058587v-9.98828264c0-1.10780515.8926228-2.00585866 1.99508929-2.00585866zm0 1h-14.00982141c-.54871518 0-.99508929.44887827-.99508929 1.00585866v9.98828264c0 .5572961.44630695 1.0058587.99508929 1.0058587h14.00982141c.5487152 0 .9950893-.4488783.9950893-1.0058587v-9.98828264c0-.55729607-.446307-1.00585866-.9950893-1.00585866zm-8.30912922 2.24944486 4.60460462 2.73982242c.9365543.55726659.9290753 1.46522435 0 2.01804082l-4.60460462 2.7398224c-.93655425.5572666-1.69578148.1645632-1.69578148-.8937585v-5.71016863c0-1.05087579.76670616-1.446575 1.69578148-.89375851zm-.67492769.96085624v5.5750128c0 .2995102-.10753745.2442517.16578928.0847713l4.58452283-2.67497259c.3050619-.17799716.3051624-.21655446 0-.39461026l-4.58452283-2.67497264c-.26630747-.15538481-.16578928-.20699944-.16578928.08477139z" fill="currentColor" fill-rule="evenodd"/></svg>

<svg id="i-video" viewBox="0 0 18 18" xmlns="http://www.w3.org/2000/svg"><path d="M16.005 2A2 2 0 0 1 18 4.006v9.988A2 2 0 0 1 16.005 16H1.995A2 2 0 0 1 0 13.994V4.006A2 2 0 0 1 1.995 2zm0 1H1.995A1 1 0 0 0 1 4.006v9.988A1 1 0 0 0 1.995 15h14.01A1 1 0 0 0 17 13.994V4.006A1 1 0 0 0 16.005 3zm-8.31 2.25L12.3 7.99c.937.557.93 1.464 0 2.017l-4.604 2.74c-.937.557-1.696.165-1.696-.894v-5.71c0-1.05.767-1.446 1.696-.894zm-.674.96v5.575c0 .3-.108.245.166.085l4.584-2.675c.305-.178.305-.216 0-.394L7.187 6.126c-.267-.156-.166-.207-.166.084z" fill="currentColor" fill-rule="evenodd"/></svg>
